X: 59
T: Den flyvende Storm
B:[[Notböcker/Melodier til gamle danske Almuedanse for Violin solo]]
O:Danmark
Z:Søren Bak Vestergaard
M: 2/4
L: 1/8
K: D
!upbow!A|fedB|A2 F2|BAGE|F2 (!upbow!.D.F)|fedB|A2 F2|BAGE|1 D2 z:|2 D2 z2\
|:!downbow!fafa|gf g2|egeg|fe f2|fafa|gf g2|b3 c|1 d2 z2:|2 d2 z|]

